z_dist/img/icons/interface/flip_device.svg

<svg width="64" height="64" viewBox="0 0 64 64" fill="none" xmlns="http://www.w3.org/2000/svg">
<path fill-rule="evenodd" clip-rule="evenodd" d="M9.22499 6.47487C8.18539 6.72257 7.16259 7.58377 6.68039 8.61727L6.40039 9.21727V29.9673V50.7173L6.66839 51.2891C7.23839 52.5051 8.45539 53.4011 9.71249 53.5302L10.3246 53.5931L10.3877 54.1966C10.5192 55.4544 11.3456 56.6063 12.5378 57.1932L13.1962 57.5173H33.9504H54.7046L55.363 57.1932C56.1559 56.8028 56.8582 56.0876 57.2324 55.2891L57.5004 54.7173L57.5278 45.0182C57.5547 35.5235 57.551 35.3054 57.353 34.6682C56.9966 33.5214 56.2123 32.6919 55.0861 32.2705C54.5518 32.0706 54.3583 32.0673 43.2466 32.0673H31.9504L31.9471 21.2423C31.9453 15.2886 31.9041 10.1086 31.8555 9.73127C31.6755 8.33457 30.7857 7.14147 29.5504 6.64037L29.0004 6.41727L19.3004 6.40137C13.879 6.39247 9.43479 6.42487 9.22499 6.47487ZM36.3504 8.71727L34.1021 10.9673L36.3503 13.2172L38.5985 15.467L39.1482 14.9173L39.6979 14.3676L38.3506 13.0175L37.0032 11.6673H41.731C47.0261 11.6673 47.441 11.7066 48.7112 12.3289C49.9529 12.9372 50.9805 13.9648 51.5888 15.2065C52.2111 16.4767 52.2504 16.8916 52.2504 22.1867V26.9145L50.9002 25.5671L49.5501 24.2198L49.0004 24.7695L48.4507 25.3192L50.7008 27.5677L52.951 29.8162L55.2249 27.5422L57.4989 25.2682L56.9748 24.744L56.4506 24.2199L55.1064 25.5614L53.7621 26.9028L53.7263 21.7601C53.6859 15.9738 53.7047 16.1398 52.9064 14.5173C52.1083 12.8953 50.9389 11.7403 49.3004 10.9556C47.7592 10.2175 47.8887 10.2314 42.1576 10.1914L37.0149 10.1556L38.355 8.81257L39.6952 7.46967L39.2016 6.96847C38.9301 6.69277 38.6834 6.46727 38.6533 6.46727C38.6233 6.46727 37.587 7.47977 36.3504 8.71727ZM29.2574 8.18597C29.5088 8.33377 29.8463 8.64467 30.0074 8.87697C30.2958 9.29277 30.3009 9.32317 30.3324 10.8333L30.3645 12.3673H19.1074H7.85039V11.1039C7.85039 10.3996 7.90449 9.65837 7.97259 9.42887C8.12269 8.92357 8.86439 8.15307 9.35039 7.99757C9.59999 7.91777 12.4395 7.89017 19.2504 7.90147L28.8004 7.91727L29.2574 8.18597ZM15.1504 10.1173V10.8673H19.1504H23.1504V10.1173V9.36727H19.1504H15.1504V10.1173ZM30.3504 22.9673V32.0673H21.8542C13.5035 32.0673 13.3484 32.0709 12.8039 32.2746C12.0895 32.5419 11.3686 33.1155 10.9735 33.7313C10.3909 34.6392 10.3504 34.9972 10.3504 39.2383V43.0673H9.10039H7.85039V28.4673V13.8673H19.1004H30.3504V22.9673ZM9.35039 22.6173V29.8673H19.1004H28.8504V22.6173V15.3673H19.1004H9.35039V22.6173ZM27.3504 18.8673C27.3504 19.9673 27.3249 20.8673 27.2938 20.8673C27.2626 20.8673 26.7278 20.4173 26.1052 19.8673C25.4827 19.3173 24.9476 18.8673 24.916 18.8673C24.8845 18.8673 23.86 19.8798 22.6394 21.1173C21.4188 22.3548 20.3779 23.3673 20.3263 23.3673C20.2747 23.3673 19.6481 22.8161 18.9339 22.1423C18.2197 21.4685 17.5824 20.9052 17.5178 20.8904C17.4532 20.8757 15.9607 22.3044 14.201 24.0654C12.4413 25.8265 10.9676 27.2673 10.926 27.2673C10.8844 27.2673 10.8504 24.9273 10.8504 22.0673V16.8673H19.1004H27.3504V18.8673ZM12.4504 19.1173V19.8673H13.9504H15.4504V19.1173V18.3673H13.9504H12.4504V19.1173ZM19.6504 19.1173V19.8673H20.4004H21.1504V19.1173V18.3673H20.4004H19.6504V19.1173ZM26.9754 22.6321L27.3504 22.9668V25.667V28.3673H22.4918H17.6331L21.3065 24.6212L24.9799 20.8751L25.7902 21.5862C26.2358 21.9774 26.7692 22.448 26.9754 22.6321ZM18.4542 23.7596L19.3004 24.5518L17.4014 26.4596L15.5024 28.3673L13.7514 28.3648L12.0004 28.3623L14.7174 25.6648C16.2118 24.1812 17.4735 22.9673 17.5212 22.9673C17.5689 22.9673 17.9888 23.3238 18.4542 23.7596ZM33.6504 29.7173V30.4673H34.4004H35.1504V29.7173V28.9673H34.4004H33.6504V29.7173ZM36.6504 29.7173V30.4673H37.4004H38.1504V29.7173V28.9673H37.4004H36.6504V29.7173ZM39.7171 29.034C39.6804 29.0706 39.6504 29.4081 39.6504 29.784V30.4673H40.4004H41.1504V29.7173V28.9673H40.4671C40.0912 28.9673 39.7537 28.9973 39.7171 29.034ZM20.3504 44.8173V56.0673H17.087C14.8996 56.0673 13.6959 56.029 13.4362 55.9512C12.8819 55.7852 12.3133 55.2563 12.0626 54.6735L11.8465 54.1711L11.8734 44.6442L11.9004 35.1173L12.1691 34.6603C12.4115 34.2478 12.9553 33.7765 13.3504 33.6363C13.4329 33.607 15.0416 33.5795 16.9254 33.5752L20.3504 33.5673V44.8173ZM50.0504 44.8173V56.0673H35.9504H21.8504V44.8173V33.5673H35.9504H50.0504V44.8173ZM55.0276 33.8901C55.2541 34.0401 55.5656 34.3776 55.7199 34.6401L56.0004 35.1173L56.0293 44.5673C56.0516 51.8454 56.0298 54.1206 55.9344 54.467C55.7755 55.0442 55.0604 55.7753 54.4888 55.9451C54.2593 56.0132 53.5181 56.0673 52.8138 56.0673H51.5504V44.8103V33.5532L53.0832 33.5853C54.5592 33.6161 54.6312 33.6274 55.0276 33.8901ZM24.1504 44.8173V53.5673H35.9504H47.7504V44.8173V36.0673H35.9504H24.1504V44.8173ZM46.2504 40.3173C46.2504 41.8298 46.2319 43.0673 46.2092 43.0673C46.1865 43.0673 45.4778 42.4601 44.6342 41.718C43.7906 40.9759 43.0706 40.3684 43.0341 40.368C42.9977 40.3676 41.741 41.6273 40.2415 43.1673C38.742 44.7073 37.4893 45.967 37.4578 45.9667C37.4262 45.9663 36.6354 45.2483 35.7004 44.371L34.0004 42.7761L31.9004 44.8467C30.7454 45.9856 28.8666 47.8395 27.7254 48.9664L25.6504 51.0155V44.2914V37.5673H35.9504H46.2504V40.3173ZM27.4504 39.8173V40.5673H28.2004H28.9504V39.8173V39.0673H28.2004H27.4504V39.8173ZM30.4504 39.8173V40.5673H31.2004H31.9504V39.8173V39.0673H31.2004H30.4504V39.8173ZM33.4504 39.8173V40.5673H36.4504H39.4504V39.8173V39.0673H36.4504H33.4504V39.8173ZM53.0504 44.7673V48.7673H53.8004H54.5504V44.7673V40.7673H53.8004H53.0504V44.7673ZM15.0004 42.3031C12.868 43.3005 12.8383 46.1898 14.9492 47.2667C16.2088 47.9093 17.9058 47.3308 18.5679 46.0331C18.8639 45.4527 18.9196 44.5274 18.6986 43.8618C18.2148 42.4054 16.409 41.6442 15.0004 42.3031ZM45.0381 44.0673L46.2381 45.1173L46.2442 48.5923L46.2504 52.0673H39.9917H33.7331L34.4667 51.2816C34.8703 50.8495 36.9757 48.6708 39.1455 46.44L43.0906 42.3841L43.4644 42.7007C43.67 42.8748 44.3782 43.4898 45.0381 44.0673ZM16.7464 43.7309C17.605 44.2381 17.5074 45.5448 16.582 45.9314C16.1008 46.1325 15.6354 46.0369 15.2581 45.6596C14.2397 44.6413 15.5071 42.9988 16.7464 43.7309ZM10.3504 48.3173V52.0673L10.0254 52.0663C9.54729 52.0649 8.72999 51.6461 8.38249 51.2246C7.89009 50.6273 7.85039 50.3364 7.85039 47.3307V44.5673H9.10039H10.3504V48.3173ZM35.4076 46.1587C35.9261 46.6545 36.3504 47.0879 36.3504 47.122C36.3504 47.1561 35.2817 48.282 33.9754 49.6241L31.6004 52.0643L29.2254 52.0658C27.9192 52.0666 26.8504 52.0535 26.8504 52.0367C26.8504 52.0198 28.4566 50.4035 30.4198 48.4447L33.9893 44.8834L34.227 45.0704C34.3578 45.1732 34.889 45.663 35.4076 46.1587Z" fill="#111111"/>
</svg>

<svg width="64" height="64" fill="none" xmlns="http://www.w3.org/2000/svg"><path fill-rule="evenodd" clip-rule="evenodd" d="M9.225 6.475c-1.04.248-2.062 1.109-2.545 2.142l-.28.6v41.5l.268.572c.57 1.216 1.787 2.112 3.044 2.241l.613.063.063.604c.131 1.257.958 2.41 2.15 2.996l.658.324h41.509l.658-.324a4.169 4.169 0 001.87-1.904l.267-.572.028-9.699c.027-9.495.023-9.713-.175-10.35-.356-1.147-1.14-1.976-2.267-2.398-.534-.2-.728-.203-11.84-.203H31.95l-.003-10.825c-.002-5.953-.043-11.133-.091-11.51-.18-1.397-1.07-2.59-2.306-3.092L29 6.417l-9.7-.016c-5.421-.009-9.865.024-10.075.074zM36.35 8.717l-2.248 2.25 2.248 2.25 2.248 2.25.55-.55.55-.55-1.347-1.35-1.348-1.35h4.728c5.295 0 5.71.04 6.98.662a6.33 6.33 0 012.878 2.877c.622 1.27.661 1.686.661 6.98v4.729l-1.35-1.348-1.35-1.347-.55.55-.55.55 2.25 2.248 2.251 2.248 2.274-2.274 2.274-2.274-.524-.524-.524-.524-1.345 1.341-1.344 1.342-.036-5.143c-.04-5.786-.021-5.62-.82-7.243-.798-1.622-1.967-2.777-3.606-3.561-1.54-.739-1.411-.725-7.142-.765l-5.143-.035 1.34-1.343 1.34-1.343-.493-.502c-.272-.275-.519-.5-.549-.5-.03 0-1.066 1.012-2.303 2.25zm-7.093-.531c.252.148.59.459.75.691.289.416.294.446.325 1.956l.032 1.534H7.85v-1.263c0-.704.054-1.446.123-1.675.15-.505.891-1.276 1.377-1.431.25-.08 3.09-.108 9.9-.097l9.55.016.457.269zM15.15 10.117v.75h8v-1.5h-8v.75zm15.2 12.85v9.1h-8.496c-8.35 0-8.506.004-9.05.208-.715.267-1.435.84-1.83 1.456-.583.908-.624 1.266-.624 5.507v3.83h-2.5v-29.2h22.5v9.1zm-21-.35v7.25h19.5v-14.5H9.35v7.25zm18-3.75c0 1.1-.025 2-.056 2s-.566-.45-1.189-1c-.622-.55-1.157-1-1.189-1-.032 0-1.056 1.013-2.277 2.25-1.22 1.238-2.261 2.25-2.313 2.25-.051 0-.678-.55-1.392-1.225-.714-.674-1.352-1.237-1.416-1.252-.065-.014-1.557 1.414-3.317 3.175-1.76 1.761-3.233 3.202-3.275 3.202-.042 0-.076-2.34-.076-5.2v-5.2h16.5v2zm-14.9.25v.75h3v-1.5h-3v.75zm7.2 0v.75h1.5v-1.5h-1.5v.75zm7.325 3.515l.375.335v5.4h-9.717l3.674-3.746 3.673-3.746.81.711c.446.391.98.862 1.185 1.046zm-8.52 1.128l.845.792-1.899 1.908-1.899 1.907-1.75-.002L12 28.362l2.717-2.697c1.495-1.484 2.757-2.698 2.804-2.698.048 0 .468.357.933.793zm15.195 5.957v.75h1.5v-1.5h-1.5v.75zm3 0v.75h1.5v-1.5h-1.5v.75zm3.067-.683c-.037.037-.067.374-.067.75v.683h1.5v-1.5h-.683c-.376 0-.713.03-.75.067zM20.35 44.817v11.25h-3.263c-2.187 0-3.391-.038-3.65-.116-.555-.166-1.124-.695-1.374-1.278l-.216-.502.026-9.527.027-9.527.27-.457c.242-.412.785-.883 1.18-1.024.083-.029 1.692-.056 3.575-.06l3.425-.009v11.25zm29.7 0v11.25h-28.2v-22.5h28.2v11.25zm4.978-10.927c.226.15.538.488.692.75l.28.477.03 9.45c.022 7.278 0 9.554-.096 9.9-.158.577-.874 1.308-1.445 1.478-.23.068-.97.122-1.675.122H51.55V33.553l1.533.032c1.476.031 1.548.042 1.945.305zM24.15 44.817v8.75h23.6v-17.5h-23.6v8.75zm22.1-4.5c0 1.513-.018 2.75-.04 2.75-.023 0-.732-.607-1.576-1.349-.843-.742-1.563-1.35-1.6-1.35-.036 0-1.293 1.26-2.792 2.8-1.5 1.54-2.753 2.799-2.784 2.799-.032 0-.823-.719-1.758-1.596L34 42.776l-2.1 2.07a9961.826 9961.826 0 00-4.175 4.12l-2.075 2.05V37.567h20.6v2.75zm-18.8-.5v.75h1.5v-1.5h-1.5v.75zm3 0v.75h1.5v-1.5h-1.5v.75zm3 0v.75h6v-1.5h-6v.75zm19.6 4.95v4h1.5v-8h-1.5v4zM15 42.303c-2.132.998-2.162 3.887-.05 4.964 1.259.642 2.956.064 3.618-1.234.296-.58.352-1.506.13-2.171-.483-1.457-2.289-2.218-3.698-1.559zm30.038 1.764l1.2 1.05.006 3.475.006 3.475H33.733l.734-.785c.403-.432 2.509-2.611 4.678-4.842l3.946-4.056.373.317c.206.174.914.789 1.574 1.366zm-28.292-.336c.859.507.761 1.814-.164 2.2-.481.202-.947.106-1.324-.271-1.018-1.019.25-2.661 1.488-1.93zm-6.396 4.586v3.75h-.325c-.478-.002-1.295-.42-1.643-.842-.492-.598-.532-.889-.532-3.894v-2.764h2.5v3.75zm25.058-2.158c.518.495.942.929.942.963 0 .034-1.068 1.16-2.375 2.502l-2.375 2.44-2.375.002c-1.306 0-2.375-.013-2.375-.03 0-.016 1.607-1.633 3.57-3.591l3.57-3.562.237.187c.13.103.662.593 1.18 1.089z" fill="#111"/></svg>
